X: 816
T: We'r aw forsaken for want aw Siller
%R: triple hornpipe, slip-jig
B: "The Compleat Country Dancing-Master" printed by John Walsh, London ca. 1740
S: 6: CCDM2 http://imslp.org/wiki/The_Compleat_Country_Dancing-Master_(Various) V.2 (50)
Z: 2013 John Chambers <jc:trillian.mit.edu>
N: Repeats added to satisfy the "Each Strain twice" instruction.
M: 9/8
L: 1/8
K: Am
% - - - - - - - - - - - - - - - - - - - - - - - - -
   f | e2d (B/c/d)B (A/B/c)A | c2e (ecA) (Bdf) | e2d (B/c/d)B A/B/cA | Gge dBG Bd :|
|: B | c2g  B2g      A2g     | c2e (ecA) (BdB) | ccg  BBg     AAg    | Gge dBG Bd :|
% - - - - - - - - - - - - - - - - - - - - - - - - -
%%begintext align
%% The 1st Cu. sett and cat off below the 2d Cu. .| Then
%% sett and cast off below the 3d Cu. :| Then lead thro
%% to the Top .| Then cast off and right and left quite
%% round and turn :|
%%endtext
%%sep 1 8 500

%%sep 1 1 500
%%sep 1 1 500
